newicons/loklok_alt_1.svg

<?xml version="1.0" encoding="UTF-8"?><svg id="a" xmlns="http://www.w3.org/2000/svg" viewBox="0 0 48 48"><defs><style>.b{fill:none;stroke:#fff;stroke-linecap:round;stroke-linejoin:round;}</style></defs><path class="b" d="M9.5,42.5h29c2.2091,0,4-1.7909,4-4V9.5c0-2.2091-1.7909-4-4-4H9.5c-2.2091,0-4,1.7909-4,4v29c0,2.2091,1.7909,4,4,4Z"/><path class="b" d="M8.5,20.546v6.908h3.454M19.471,20.546v6.908M23.184,27.454l-2.844-3.454,2.844-3.43M20.34,24h-.869"/><rect class="b" x="13.033" y="20.546" width="4.577" height="6.908" rx="2.288" ry="2.288"/><path class="b" d="M24.816,20.546v6.908h3.454M35.787,20.546v6.908M39.5,27.454l-2.844-3.454,2.844-3.43M36.656,24h-.869"/><rect class="b" x="29.349" y="20.546" width="4.577" height="6.908" rx="2.288" ry="2.288"/></svg>

<svg xmlns="http://www.w3.org/2000/svg" id="b" viewBox="0 0 48 48"><defs><style>.c{fill:none;stroke:#fff;stroke-linecap:round;stroke-linejoin:round}</style></defs><path d="M9.5 42.5h29a4 4 0 0 0 4-4v-29a4 4 0 0 0-4-4h-29a4 4 0 0 0-4 4v29a4 4 0 0 0 4 4Z" class="c"/><path d="M8.5 20.546v6.908h3.454m7.517-6.908v6.908m3.713 0L20.34 24l2.844-3.43M20.34 24h-.869" class="c"/><rect width="4.577" height="6.908" x="13.033" y="20.546" class="c" rx="2.288" ry="2.288"/><path d="M24.816 20.546v6.908h3.454m7.517-6.908v6.908m3.713 0L36.656 24l2.844-3.43M36.656 24h-.869" class="c"/><rect width="4.577" height="6.908" x="29.349" y="20.546" class="c" rx="2.288" ry="2.288"/></svg>
